X:696
T: The Antrim Rose
Z: Piano Box Version by Martin Fleischmann
H: Created 2015-04-19 /  Last Modified 2015-05-19
R: reel
M: 4/4
L: 1/8
K: Dmaj
|:fd d2 edBd | Ad d2 Adde | fd d2 edBA | Bdgf e2 de |
fd d2 edBd | Addc defg | a2 ab afeg |1 fedB A2 de :|2 fedB A2 Bd ||
|:e2 ef edBd | e2 df efgf | edfd edBd | Addc dABd |
e2 ef edBd | e2 df efgf | eaab afeg |1 fedB A2 Bd :|2 fedB A2 de ||

